X: 1
T: Ye Nations All   [Gm]
T: the Babe of Bethlehem
C: William Walker (1809-1875)
M: 6/8
L: 1/8
K: Gm
D | G2G (AG)F | G2G A2c | d2f (dc)A | (G2F) D2 ||
w: Ye na-tions all,* on you I call, Come hear this de-*cla-ra-*tion,
D | G2G (AG)F | G2G A2c | d2f (dc)A | G3 G2 ||
w: And don't re-fuse* this glo-rious news, Of Je-sus and* sal-va-tion.
c | d2(d/e/) f2c | d2(d/e/) f2f | g2d (dc)A | (A2G) D2 ||
w: To roy-al* Jews came first the* news Of Christ the great* Mes-si-*ah,
D | G2G (AG)F | G2G A2c | d2f (dc)A | G3 G2z |] z4 z|]
w: As was fore-told* by pro-phets old, I-sa-iah, Je-*re-mi-ah.
